events/images/report.svg

<?xml version="1.0" encoding="UTF-8" standalone="no"?>
<svg
   width="492"
   height="492"
   overflow="hidden"
   version="1.1"
   id="svg10"
   sodipodi:docname="report.svg"
   inkscape:version="1.4.3 (0d15f75, 2025-12-25)"
   xmlns:inkscape="http://www.inkscape.org/namespaces/inkscape"
   xmlns:sodipodi="http://sodipodi.sourceforge.net/DTD/sodipodi-0.dtd"
   xmlns="http://www.w3.org/2000/svg"
   xmlns:svg="http://www.w3.org/2000/svg">
  <defs
     id="defs10" />
  <sodipodi:namedview
     id="namedview10"
     pagecolor="#ffffff"
     bordercolor="#000000"
     borderopacity="0.25"
     inkscape:showpageshadow="2"
     inkscape:pageopacity="0.0"
     inkscape:pagecheckerboard="0"
     inkscape:deskcolor="#d1d1d1"
     inkscape:zoom="0.6875"
     inkscape:cx="245.81818"
     inkscape:cy="246.54545"
     inkscape:window-width="1024"
     inkscape:window-height="1186"
     inkscape:window-x="0"
     inkscape:window-y="25"
     inkscape:window-maximized="0"
     inkscape:current-layer="svg10" />
  <g
     id="g10"
     transform="translate(-394,-114)">
    <path
       d="M 394,270.043 C 394,183.863 463.863,114 550.043,114 H 729.957 C 816.137,114 886,183.863 886,270.043 V 449.957 C 886,536.137 816.137,606 729.957,606 H 550.043 C 463.863,606 394,536.137 394,449.957 Z"
       fill="#fceebd"
       fill-rule="evenodd"
       id="path1" />
    <g
       id="g9">
      <g
         id="g8">
        <g
           id="g7">
          <path
             d="M 541.562,493.875 V 226.125 H 640 v 82.687 h 98.438 v 185.063 z m 122.063,-257.906 49.219,49.219 h -49.219 z m 0,-33.469 H 517.938 v 315 H 762.062 V 289.125 Z"
             fill="#00883a"
             id="path2" />
          <path
             d="m 565.188,348.188 h 149.624 v 15.75 H 565.188 Z"
             fill="#00883a"
             id="path3" />
          <path
             d="m 565.188,316.688 h 51.187 v 15.75 h -51.187 z"
             fill="#00883a"
             id="path4" />
          <path
             d="m 565.188,379.688 h 149.624 v 15.75 H 565.188 Z"
             fill="#00883a"
             id="path5" />
          <path
             d="m 565.188,411.188 h 149.624 v 15.75 H 565.188 Z"
             fill="#00883a"
             id="path6" />
          <path
             d="m 565.188,442.688 h 149.624 v 15.75 H 565.188 Z"
             fill="#00883a"
             id="path7" />
        </g>
      </g>
    </g>
  </g>
</svg>

<svg width="1280" height="720" xmlns="http://www.w3.org/2000/svg" xmlns:xlink="http://www.w3.org/1999/xlink" overflow="hidden"><g><rect x="0" y="0" width="1280" height="720" fill="#FFFFFF"/><path d="M394 270.043C394 183.863 463.863 114 550.043 114L729.957 114C816.137 114 886 183.863 886 270.043L886 449.957C886 536.137 816.137 606 729.957 606L550.043 606C463.863 606 394 536.137 394 449.957Z" fill="#FCEEBD" fill-rule="evenodd"/><g><g><g><path d="M541.562 493.875 541.562 226.125 640 226.125 640 308.812 738.438 308.812 738.438 493.875 541.562 493.875ZM663.625 235.969 712.844 285.188 663.625 285.188 663.625 235.969ZM663.625 202.5 517.938 202.5 517.938 517.5 762.062 517.5 762.062 289.125 663.625 202.5Z" fill="#00883A"/><path d="M565.188 348.188 714.812 348.188 714.812 363.938 565.188 363.938Z" fill="#00883A"/><path d="M565.188 316.688 616.375 316.688 616.375 332.438 565.188 332.438Z" fill="#00883A"/><path d="M565.188 379.688 714.812 379.688 714.812 395.438 565.188 395.438Z" fill="#00883A"/><path d="M565.188 411.188 714.812 411.188 714.812 426.938 565.188 426.938Z" fill="#00883A"/><path d="M565.188 442.688 714.812 442.688 714.812 458.438 565.188 458.438Z" fill="#00883A"/></g></g></g></g></svg>
